!!!OTL: Charles Gustavus Anderson
!!!ONM: 109.
**kern
*clefG2
*k[b-]
*F:
*M4/4
*MM54
{8c
=1
4.f
8g
(8a
8g)
(8a
8cc)
=2
4dd
4dd
(8cc
8a)
(8g
8a)
=3
(8f
8d)
(8c
8d)
4f
4e
=4
2f
4r}
{4a
=5
4cc
(8cc
8a)
4cc
(8dd
8ee)
=6
(4ff
4gg)
(8ff
8dd)
4ee
=7
4dd
(8cc
8a)
(8g
8a)
4cc
=8
2dd
4r}
{4c
=9
4.f
8g
(8a
8g)
(8a
8cc)
=10
[4dd
4dd]
(8cc
8a)
(8g
8a)
=11
(8f
8d)
(8c
8d)
4f
4e
=12
2f
4r}
{4c
=13
4.f
8g
(8a
8g)
8a
8cc
=14
4dd
4dd
(8cc
8a)
(8g
8a)
=15
(8f
8d)
(8c
8d)
4f
4e
=16
2.f
8r}
==
*-
!!!CNT: Folksongs of Maritime Canada
!!!MRD: 1928///-1932///
!!!OCL: Helen Creighton
!!!YOR: Songs and Ballads from Nova Scotia
!!!PPR: J.M. Dent & Sons, Limited
!!!PPP: Toronto, Canada
!!!PDT: 1932///
!!!reprint: Dover Publications, 1992: ISBN 0-486-21703-5
!!!ENC1: Craig Stuart Sapp (music and bibliographic data)                       
!!!ENC2: Marcus Pearce (phrase markings and key designations)                   
!!!ENC3: Darrell Conklin (phrase markings and key designations)   
!!!END: 2002/04/10/
!!!EEV: 2004/06/05
!!!MPN: Mr. Ben Henneberry
!!!PPG: 235
!!!EFL: 110/152
!!!ARE: Canada; Nova Scotia
!!!verses: 15
!!!VTS: 1888740239
